symbolic/22x22/apps/org.gnome.SimpleScan.svg

<svg xmlns="http://www.w3.org/2000/svg" width="22" height="22" version="1">
 <rect style="opacity:0.2" width="20" height="16" x="1.5" y="-19" rx="1.43" ry="1.6" transform="rotate(90)"/>
 <rect style="fill:#8d8d8d" width="20" height="16" x="1" y="-19" rx="1.43" ry="1.6" transform="rotate(90)"/>
 <path style="opacity:0.2" d="m 5,12.5 v 6.382812 C 5,18.882812 5,19.5 5.5625,19.5 H 13 l 4,-4 v -3 z"/>
 <path style="fill:#01dfd8" d="M 5,12 V 3.3749997 C 5,3.3749997 5,3 5.387096,3 H 16.612904 C 17,3 17,3.3749997 17,3.3749997 V 12"/>
 <path style="fill:#e4e4e4" d="m 5,12 h 12 v 3 L 14.1875,16.323529 13,19 H 5.5625 C 5,19 5,18.382353 5,18.382353 Z"/>
 <path style="fill:#cccccc" d="M 13,19 V 15.545455 C 13,15.545455 13,15 13.545455,15 H 17 Z"/>
 <rect style="opacity:0.2" width="20" height="2" x="1" y="11.5" rx=".5" ry=".5"/>
 <rect style="fill:#ffffff" width="20" height="2" x="1" y="11" rx=".5" ry=".5"/>
 <path style="opacity:0.2;fill:#ffffff" d="M 5.386719,3 C 4.999623,3 5,3.375 5,3.375 v 0.5 C 5,3.875 4.999623,3.5 5.386719,3.5 H 16.613281 C 17.000377,3.5 17,3.875 17,3.875 v -0.5 C 17,3.375 17.000377,3 16.613281,3 Z"/>
 <path style="opacity:0.1;fill:#ffffff" d="M 4.5996095,1 C 3.7132091,1 3,1.637628 3,2.4296875 v 0.5 C 3,2.137628 3.7132091,1.5 4.5996095,1.5 H 17.40039 C 18.286791,1.5 19,2.137628 19,2.9296875 v -0.5 C 19,1.637628 18.286791,1 17.40039,1 Z"/>
</svg>

<svg xmlns="http://www.w3.org/2000/svg" width="22" height="22" version="1"><rect style="opacity:.2" width="20" height="16" x="1.5" y="-19" rx="1.43" ry="1.6" transform="rotate(90)"/><rect style="fill:#8d8d8d" width="20" height="16" x="1" y="-19" rx="1.43" ry="1.6" transform="rotate(90)"/><path style="opacity:.2" d="M5 12.5v6.383s0 .617.563.617H13l4-4v-3z"/><path style="fill:#01dfd8" d="M5 12V3.375S5 3 5.387 3h11.226C17 3 17 3.375 17 3.375V12"/><path style="fill:#e4e4e4" d="M5 12h12v3l-2.813 1.324L13 19H5.562C5 19 5 18.382 5 18.382z"/><path style="fill:#ccc" d="M13 19v-3.455s0-.545.545-.545H17z"/><rect style="opacity:.2" width="20" height="2" x="1" y="11.5" rx=".5" ry=".5"/><rect style="fill:#fff" width="20" height="2" x="1" y="11" rx=".5" ry=".5"/><path style="opacity:.2;fill:#fff" d="M5.387 3C5 3 5 3.375 5 3.375v.5s0-.375.387-.375h11.226c.387 0 .387.375.387.375v-.5S17 3 16.613 3z"/><path style="opacity:.1;fill:#fff" d="M4.6 1C3.713 1 3 1.638 3 2.43v.5c0-.792.713-1.43 1.6-1.43h12.8c.887 0 1.6.638 1.6 1.43v-.5C19 1.638 18.287 1 17.4 1z"/></svg>
